icons/ThumbsDown_filled.svg

<svg width="24" height="24" viewBox="0 0 24 24" fill="none" xmlns="http://www.w3.org/2000/svg">
<path fill-rule="evenodd" clip-rule="evenodd" d="M10.1424,20.3753l-2.65017,-6.6253h-1.49223c-1.51878,0 -2.75,-1.2312 -2.75,-2.75v-5c0,-1.51878 1.23122,-2.75 2.75,-2.75h2h0.75h8.5042c1.3752,0 2.539,1.01585 2.7248,2.37844l0.9545,6.99996c0.2252,1.6512 -1.0583,3.1216 -2.7247,3.1216h-3.4588v2.1843c0,1.8312 -1.4845,3.3157 -3.3157,3.3157c-0.569,0 -1.0806,-0.3464 -1.2919,-0.8747zM6,12.25h1.25v-7.5h-1.25c-0.69036,0 -1.25,0.55964 -1.25,1.25v5c0,0.6904 0.55964,1.25 1.25,1.25z" fill="#002B51"/>
</svg>

<svg width="24" height="24" viewBox="0 0 24 24" fill="none" xmlns="http://www.w3.org/2000/svg">
<path fill-rule="evenodd" clip-rule="evenodd" d="M10.1424 20.3753L7.49223 13.75H6C4.48122 13.75 3.25 12.5188 3.25 11V6C3.25 4.48122 4.48122 3.25 6 3.25H8H8.75H17.2542C18.6294 3.25 19.7932 4.26585 19.979 5.62844L20.9335 12.6284C21.1587 14.2796 19.8752 15.75 18.2088 15.75H14.75V17.9343C14.75 19.7655 13.2655 21.25 11.4343 21.25C10.8653 21.25 10.3537 20.9036 10.1424 20.3753ZM6 12.25H7.25V4.75H6C5.30964 4.75 4.75 5.30964 4.75 6V11C4.75 11.6904 5.30964 12.25 6 12.25Z" fill="#002B51"/>
</svg>
